icons/subway-wifi-line.svg

<svg xmlns="http://www.w3.org/2000/svg" width="24" height="24" fill="none"><g clip-path="url(#a)"><g><path fill="#121212" d="M21 18C21 18.5304 20.7893 19.0391 20.4142 19.4142C20.0391 19.7893 19.5304 20 19 20H17.2L19 21.5V22H5V21.5L6.8 20H5C4.46957 20 3.96086 19.7893 3.58579 19.4142C3.21071 19.0391 3 18.5304 3 18V7C3 5.93913 3.42143 4.92172 4.17157 4.17157C4.92172 3.42143 5.93913 3 7 3H13V11H21V18ZM19 13H5V18H19V13ZM7.5 14C7.89782 14 8.27936 14.158 8.56066 14.4393C8.84196 14.7206 9 15.1022 9 15.5C9 15.8978 8.84196 16.2794 8.56066 16.5607C8.27936 16.842 7.89782 17 7.5 17C7.10218 17 6.72064 16.842 6.43934 16.5607C6.15804 16.2794 6 15.8978 6 15.5C6 15.1022 6.15804 14.7206 6.43934 14.4393C6.72064 14.158 7.10218 14 7.5 14ZM16.5 14C16.8978 14 17.2794 14.158 17.5607 14.4393C17.842 14.7206 18 15.1022 18 15.5C18 15.8978 17.842 16.2794 17.5607 16.5607C17.2794 16.842 16.8978 17 16.5 17C16.1022 17 15.7206 16.842 15.4393 16.5607C15.158 16.2794 15 15.8978 15 15.5C15 15.1022 15.158 14.7206 15.4393 14.4393C15.7206 14.158 16.1022 14 16.5 14ZM11 5H7C6.49542 4.99984 6.00943 5.19041 5.63945 5.5335C5.26947 5.87659 5.04284 6.34684 5.005 6.85L5 7V11H11V5ZM18.5 1C19.6935 1 20.8381 1.47411 21.682 2.31802C22.5259 3.16193 23 4.30653 23 5.5C23 6.69347 22.5259 7.83807 21.682 8.68198C20.8381 9.52589 19.6935 10 18.5 10C17.3065 10 16.1619 9.52589 15.318 8.68198C14.4741 7.83807 14 6.69347 14 5.5C14 4.30653 14.4741 3.16193 15.318 2.31802C16.1619 1.47411 17.3065 1 18.5 1ZM18.5 6.167C18.009 6.167 17.56 6.344 17.211 6.637L17.086 6.752L18.5 8.167L19.913 6.751C19.7275 6.56548 19.5072 6.4184 19.2647 6.31819C19.0222 6.21798 18.7624 6.1666 18.5 6.167ZM18.5 3.5C17.344 3.49826 16.2289 3.92714 15.372 4.703L15.199 4.868L16.143 5.81C16.4521 5.49989 16.8195 5.25394 17.224 5.08627C17.6285 4.9186 18.0621 4.83253 18.5 4.833C19.3104 4.83177 20.0932 5.12699 20.701 5.663L20.857 5.81L21.8 4.867C21.3671 4.43296 20.8528 4.08875 20.2864 3.85415C19.7201 3.61956 19.113 3.4992 18.5 3.5Z"/></g></g><defs><clipPath id="a"><rect width="24" height="24" fill="white"/></clipPath></defs></svg>

<svg width="24" height="24" fill="none" xmlns="http://www.w3.org/2000/svg"><g clip-path="url(#a)"><path d="M21 18a2 2 0 0 1-2 2h-1.8l1.8 1.5v.5H5v-.5L6.8 20H5a2 2 0 0 1-2-2V7a4 4 0 0 1 4-4h6v8h8v7Zm-2-5H5v5h14v-5ZM7.5 14a1.5 1.5 0 1 1 0 3 1.5 1.5 0 0 1 0-3Zm9 0a1.5 1.5 0 1 1 0 3 1.5 1.5 0 0 1 0-3ZM11 5H7a2 2 0 0 0-1.995 1.85L5 7v4h6V5Zm7.5-4a4.5 4.5 0 1 1 0 9 4.5 4.5 0 0 1 0-9Zm0 5.167c-.491 0-.94.177-1.289.47l-.125.115L18.5 8.167l1.413-1.416a1.993 1.993 0 0 0-1.413-.584Zm0-2.667a4.65 4.65 0 0 0-3.128 1.203l-.173.165.944.942a3.323 3.323 0 0 1 2.357-.977 3.32 3.32 0 0 1 2.201.83l.156.147.943-.943A4.652 4.652 0 0 0 18.5 3.5Z" /></g><defs><clipPath id="a"><path fill="#fff" d="M0 0h24v24H0z"/></clipPath></defs></svg>
